16x16/apps/io.github.jkozera.ZevDocs.svg

<svg height="16" width="16" xmlns="http://www.w3.org/2000/svg"><path d="m11 4.21v-3.367h-6v3.369l-4.926 10.525c-.267.631.222 1.263.933 1.263h14.003c.711 0 1.156-.674.933-1.263z" fill="#9ccc65"/><path d="m11.2 2h-6.4c-.44 0-.8-.45-.8-1s.36-1 .8-1h6.4c.44 0 .8.45.8 1s-.36 1-.8 1z" fill="#75aa38"/><path d="m8.537 10.1c-1.8-.312-3.473-1.954-3.473-1.954s1.662-1.414 3.462-1.1c1.8.311 3.474 1.954 3.474 1.954s-1.663 1.413-3.463 1.1z" fill="#2e7d32"/><path d="m9.353 14.992c-2.242-.132-4.353-1.932-4.353-1.932s1.446-1.628 3.647-1.479c2.2.149 4.353 1.932 4.353 1.932s-1.405 1.611-3.647 1.48z" fill="#388e3c"/><path d="m6.905 9.93c-1.955 1.116-1.905 3.057-1.905 3.057s3.197.191 5.095-.915 1.905-3.058 1.905-3.058-3.14-.2-5.095.916z" fill="#43a047"/></svg>

<svg height="16" width="16" xmlns="http://www.w3.org/2000/svg">
    <path d="M11 4.21V.843H5v3.369L.074 14.737C-.193 15.368.296 16 1.007 16H15.01c.711 0 1.156-.674.933-1.263z" fill="#9ccc65"/>
    <path d="M11.2 2H4.8C4.36 2 4 1.55 4 1s.36-1 .8-1h6.4c.44 0 .8.45.8 1s-.36 1-.8 1z" fill="#75aa38"/>
    <path d="M8.537 10.1c-1.8-.312-3.473-1.954-3.473-1.954s1.662-1.414 3.462-1.1C10.326 7.357 12 9 12 9s-1.663 1.413-3.463 1.1z" fill="#2e7d32"/>
    <path d="M9.353 14.992C7.111 14.86 5 13.06 5 13.06s1.446-1.628 3.647-1.479c2.2.149 4.353 1.932 4.353 1.932s-1.405 1.611-3.647 1.48z" fill="#388e3c"/>
    <path d="M6.905 9.93C4.95 11.046 5 12.987 5 12.987s3.197.191 5.095-.915S12 9.014 12 9.014s-3.14-.2-5.095.916z" fill="#43a047"/>
</svg>
